X:1
T:How Happy the Soldier
M:6/8
L:1/8
K:D
 B| AFA DFA| AFG A2 B| AFA DFA| BEF G2 B| AGF AGF| AGF A2 A| AGG dcd|\
 E F3/2 E/2 G2 B/2B/2| AGF AGF| A G3/2 F/2 A2 B/2B/2| AGF dcd| E F3/2 E/2 D2||\
